X: 212
T: Tom Busby's
M:6/8
R:Jig
L:1/8
K:Em
"Em"Bee B2A|"Bm"Bee BAF|"G"Bee Bee|"D(A)" BAF AFD|
"Em"Bee B2A|"Bm"Bee def|"G"gfe dBG|"D"ABG AFD:|
"D"~A3 ded|"G"BAB dBG|"D"~A3 ded|"(A)"dAF AFD|
"D"~A3 ded|"G"BAB "D"def|"G"gfe dBG|"D"ABG AFD:|


